!!!SOCIAL_FUNCTION:	songs of the sun dance
!!!PDT:	1918

Specific Region: Dakotas, Minnesota, Montana, Nebraska
!!!REG: Dakotas and Montana
!!!LING_GROUP: Siouan
!!!LANG: Tone
!!!OTL@ENG: Dancing Song (a)
!!!ONM: No. 29
**kern
*Imale
*clefF4
*k[f#c#g#]
*M2/4
*MM80
8.e
16e
4e
=2
4.c#
8B
=3
4B
8c#
8B
=4
16A
[8.A
4A]
=5||
*M3/4
2A
16c#
16B
16c#
16B
=6||
*M2/4
4.A
8F#
=7
4F#
8A
8F#
=8
16E
[8.E
4E]
=9
2E
=10
8E
8C#
4E
=11||
*M3/4
8C#
[8C#
2C#]
=12||
*M2/4
16E
8.C#
16E
8.C#
=13
2C#
==
*-
!!!CNT: Native American -- Sioux
!!!MRD: 1911/07//-1914///
!!!OCL: Frances Densmore
!!!YOR1: Teton Sioux Music, Bulletin 61,
!!!YOR2: Bureau of American Ethnology, Smithsonian Institution
!!!PPR: Government Printing Office
!!!PPP: Washington, D.C.
!!!PDT: 1918///
!!!ENC: Craig Stuart Sapp
!!!END: 2002/03/25/
!!!EEV: 2002/03/31/
!!!AGN: Ceremonial Song/Song of the Sun Dance
!!!MPN@@SIO: Zintka'la-lu'ta
!!!MPN@ENG: Red Bird
!!!TXO: Teton Sioux
!!!MLC: Standing Rock Reservation, South Dakota, United States of America
!!!ARL: 45.9/-100.7#
!!!catalog: Catalogue No. 499
!!!PPG: 143
!!!EFL: 29/245
!!!VTS: 1073883276
